src/plus.svg

<svg xmlns="http://www.w3.org/2000/svg" class="dibsvg-svg dibsvg-plus" viewBox="0 0 250 250">
    <path d="M117,118 L7.4990045,118 C3.35670226,118 0,121.357864 0,125.5 C0,129.633707 3.35741867,133 7.4990045,133 L117,133 L117,242.500996 C117,246.643298 120.357864,250 124.5,250 C128.633707,250 132,246.642581 132,242.500996 L132,133 L242.500996,133 C246.643298,133 250,129.642136 250,125.5 C250,121.366293 246.642581,118 242.500996,118 L132,118 L132,7.4990045 C132,3.35670226 128.642136,0 124.5,0 C120.366293,0 117,3.35741867 117,7.4990045 L117,118 Z"/>
</svg>

<svg xmlns="http://www.w3.org/2000/svg" class="dibsvg-svg dibsvg-plus" viewBox="0 0 250 250">
    <path d="M117 118H7.499A7.499 7.499 0 0 0 0 125.5c0 4.134 3.357 7.5 7.499 7.5H117v109.501a7.499 7.499 0 0 0 7.5 7.499c4.134 0 7.5-3.357 7.5-7.499V133h110.501a7.499 7.499 0 0 0 7.499-7.5c0-4.134-3.357-7.5-7.499-7.5H132V7.499A7.499 7.499 0 0 0 124.5 0c-4.134 0-7.5 3.357-7.5 7.499V118z"/>
</svg>
